X: 10592
T: Doug Dorward's
R: jig
M: 6/8
K: Dmajor
|:A,B,D EDE|FAB d3|d2g fdB|AFG {E}FDB,|
A,B,D EDE|FAB d3|d2g fdB|1 AFE D2A,:|2 AFE D2A||
|:d2g fdg|fdB AFA|deg fdg|aaa aba|
deg fdg|fdB AF/E/D|GAG FDD|1 B,A,B, DFA:|2 B,A,B, DA,A,||

